; generated by Slic3r 1.3.1-dev on 2020-05-04 at 11:48:36

; external perimeters extrusion width = 0.44mm (2.38mm^3/s)
; perimeters extrusion width = 0.56mm (6.20mm^3/s)
; infill extrusion width = 0.50mm (7.31mm^3/s)
; solid infill extrusion width = 0.56mm (2.07mm^3/s)
; top infill extrusion width = 0.56mm (1.55mm^3/s)

G28 ; home all axes
G1 Z5 F5000 ; lift nozzle

; Filament gcode

G21 ; set units to millimeters
G90 ; use absolute coordinates
M82 ; use absolute distances for extrusion
G92 E0
G1 Z0.200 F7800.000
G1 E-2.00000 F2400.00000
G92 E0
G1 X5.000 Y-11.357 F7800.000
G1 E2.00000 F2400.00000
G1 F1800
G1 X7.211 Y-10.960 E2.06669
G1 X9.146 Y-9.819 E2.13339
G1 X10.563 Y-8.077 E2.20008
G1 X11.357 Y-5.000 E2.29442
G1 X11.357 Y5.000 E2.59133
G1 X10.960 Y7.211 E2.65803
G1 X9.819 Y9.146 E2.72472
G1 X8.077 Y10.563 E2.79142
G1 X5.000 Y11.357 E2.88576
G1 X-5.000 Y11.357 E3.18267
G1 X-7.211 Y10.960 E3.24936
G1 X-9.146 Y9.819 E3.31606
G1 X-10.563 Y8.077 E3.38275
G1 X-11.357 Y5.000 E3.47709
G1 X-11.357 Y-5.000 E3.77400
G1 X-10.960 Y-7.211 E3.84070
G1 X-9.819 Y-9.146 E3.90739
G1 X-8.077 Y-10.563 E3.97409
G1 X-5.000 Y-11.357 E4.06842
G1 X4.940 Y-11.357 E4.36356
G1 E2.36356 F2400.00000
G92 E0
G1 X4.443 Y-4.443 F7800.000
G1 E2.00000 F2400.00000
G1 F1800
G1 X4.443 Y4.443 E2.26383
G1 X-4.443 Y4.443 E2.52766
G1 X-4.443 Y-4.443 E2.79150
G1 X4.383 Y-4.443 E3.05355
G1 X4.800 Y-4.800 F7800.000
G1 F1800
G1 X4.800 Y4.800 E3.33858
G1 X-4.800 Y4.800 E3.62362
G1 X-4.800 Y-4.800 E3.90866
G1 X4.740 Y-4.800 E4.19191
G1 X4.696 Y-4.414 F7800.000
G1 E2.19191 F2400.00000
G92 E0
G1 X-3.947 Y-4.225 F7800.000
G1 E2.00000 F2400.00000
G1 F1800
G1 X-4.225 Y-3.947 E2.01180
G1 X-4.225 Y-3.436 E2.02714
G1 X-3.436 Y-4.225 E2.06063
G1 X-2.925 Y-4.225 E2.07596
G1 X-4.225 Y-2.925 E2.13114
G1 X-4.225 Y-2.415 E2.14648
G1 X-2.415 Y-4.225 E2.22335
G1 X-1.904 Y-4.225 E2.23868
G1 X-4.225 Y-1.904 E2.33724
G1 X-4.225 Y-1.393 E2.35258
G1 X-1.393 Y-4.225 E2.47282
G1 X-0.882 Y-4.225 E2.48816
G1 X-4.225 Y-0.882 E2.63009
G1 X-4.225 Y-0.372 E2.64543
G1 X-0.372 Y-4.225 E2.80905
G1 X0.139 Y-4.225 E2.82439
G1 X-4.225 Y0.139 E3.00970
G1 X-4.225 Y0.650 E3.02504
G1 X0.650 Y-4.225 E3.23204
G1 X1.160 Y-4.225 E3.24738
G1 X-4.225 Y1.160 E3.47607
G1 X-4.225 Y1.671 E3.49140
G1 X1.671 Y-4.225 E3.74178
G1 X2.182 Y-4.225 E3.75712
G1 X-4.225 Y2.182 E4.02918
G1 X-4.225 Y2.693 E4.04452
G1 X2.693 Y-4.225 E4.33828
G1 X3.203 Y-4.225 E4.35361
G1 X-4.225 Y3.203 E4.66906
G1 X-4.225 Y3.714 E4.68439
G1 X3.714 Y-4.225 E5.02153
G1 X4.225 Y-4.225 E5.03686
G1 X-4.225 Y4.225 E5.39568
G1 X-3.714 Y4.225 E5.41102
G1 X4.225 Y-3.714 E5.74815
G1 X4.225 Y-3.203 E5.76349
G1 X-3.203 Y4.225 E6.07893
G1 X-2.693 Y4.225 E6.09427
G1 X4.225 Y-2.693 E6.38803
G1 X4.225 Y-2.182 E6.40336
G1 X-2.182 Y4.225 E6.67543
G1 X-1.671 Y4.225 E6.69076
G1 X4.225 Y-1.671 E6.94114
G1 X4.225 Y-1.160 E6.95648
G1 X-1.160 Y4.225 E7.18517
G1 X-0.650 Y4.225 E7.20050
G1 X4.225 Y-0.650 E7.40750
G1 X4.225 Y-0.139 E7.42284
G1 X-0.139 Y4.225 E7.60815
G1 X0.372 Y4.225 E7.62349
G1 X4.225 Y0.372 E7.78711
G1 X4.225 Y0.883 E7.80245
G1 X0.883 Y4.225 E7.94438
G1 X1.393 Y4.225 E7.95972
G1 X4.225 Y1.393 E8.07996
G1 X4.225 Y1.904 E8.09530
G1 X1.904 Y4.225 E8.19385
G1 X2.415 Y4.225 E8.20919
G1 X4.225 Y2.415 E8.28606
G1 X4.225 Y2.925 E8.30139
G1 X2.925 Y4.225 E8.35657
G1 X3.436 Y4.225 E8.37191
G1 X4.225 Y3.436 E8.40540
G1 X4.225 Y3.947 E8.42073
G1 X3.947 Y4.225 E8.43253
G1 Z0.400 F7800.000
G1 E6.43253 F2400.00000
G92 E0
G1 X4.323 Y-4.323 F7800.000
G1 E2.00000 F2400.00000
G1 F900
G1 X4.323 Y4.323 E2.37173
G1 X-4.323 Y4.323 E2.74346
G1 X-4.323 Y-4.323 E3.11519
G1 X4.263 Y-4.323 E3.48434
G1 X4.780 Y-4.780 F7800.000
G1 F900
G1 X4.780 Y4.780 E3.79999
G1 X-4.780 Y4.780 E4.11564
G1 X-4.780 Y-4.780 E4.43128
G1 X4.720 Y-4.780 E4.74495
G1 X4.676 Y-4.394 F7800.000
G1 X4.007 Y-3.605 F7800.000
G1 F1200
G1 X3.605 Y-4.007 E4.77041
G1 X2.843 Y-4.007 E4.80447
G1 X4.007 Y-2.843 E4.87811
G1 X4.007 Y-2.082 E4.91218
G1 X2.082 Y-4.007 E5.03399
G1 X1.321 Y-4.007 E5.06805
G1 X4.007 Y-1.321 E5.23804
G1 X4.007 Y-0.560 E5.27210
G1 X0.560 Y-4.007 E5.49026
G1 X-0.201 Y-4.007 E5.52433
G1 X4.007 Y0.201 E5.79066
G1 X4.007 Y0.962 E5.82473
G1 X-0.962 Y-4.007 E6.13923
G1 X-1.723 Y-4.007 E6.17330
G1 X4.007 Y1.723 E6.53598
G1 X4.007 Y2.485 E6.57005
G1 X-2.485 Y-4.007 E6.98090
G1 X-3.246 Y-4.007 E7.01497
G1 X4.007 Y3.246 E7.47400
G1 X4.007 Y4.007 E7.50806
G1 X-4.007 Y-4.007 E8.01527
G1 X-4.007 Y-3.246 E8.04933
G1 X3.246 Y4.007 E8.50836
G1 X2.485 Y4.007 E8.54243
G1 X-4.007 Y-2.485 E8.95328
G1 X-4.007 Y-1.723 E8.98735
G1 X1.723 Y4.007 E9.35003
G1 X0.962 Y4.007 E9.38410
G1 X-4.007 Y-0.962 E9.69861
G1 X-4.007 Y-0.201 E9.73267
G1 X0.201 Y4.007 E9.99901
G1 X-0.560 Y4.007 E10.03307
G1 X-4.007 Y0.560 E10.25123
G1 X-4.007 Y1.321 E10.28530
G1 X-1.321 Y4.007 E10.45528
G1 X-2.082 Y4.007 E10.48935
G1 X-4.007 Y2.082 E10.61116
G1 X-4.007 Y2.843 E10.64522
G1 X-2.843 Y4.007 E10.71886
G1 X-3.605 Y4.007 E10.75293
G1 X-4.007 Y3.605 E10.77839
G1 Z0.600 F7800.000
G1 E8.77839 F2400.00000
G92 E0
G1 X4.323 Y-4.323 F7800.000
G1 E2.00000 F2400.00000
G1 F900
G1 X4.323 Y4.323 E2.37173
G1 X-4.323 Y4.323 E2.74346
G1 X-4.323 Y-4.323 E3.11519
G1 X4.263 Y-4.323 E3.48434
G1 X4.780 Y-4.780 F7800.000
G1 F900
G1 X4.780 Y4.780 E3.79999
G1 X-4.780 Y4.780 E4.11564
G1 X-4.780 Y-4.780 E4.43128
G1 X4.720 Y-4.780 E4.74495
G1 X4.676 Y-4.394 F7800.000
G1 E2.74495 F2400.00000
G92 E0
G1 X-3.605 Y-4.007 F7800.000
G1 E2.00000 F2400.00000
G1 F1200
G1 X-4.007 Y-3.605 E2.02546
G1 X-4.007 Y-2.843 E2.05953
G1 X-2.843 Y-4.007 E2.13317
G1 X-2.082 Y-4.007 E2.16723
G1 X-4.007 Y-2.082 E2.28904
G1 X-4.007 Y-1.321 E2.32311
G1 X-1.321 Y-4.007 E2.49310
G1 X-0.560 Y-4.007 E2.52716
G1 X-4.007 Y-0.560 E2.74532
G1 X-4.007 Y0.201 E2.77939
G1 X0.201 Y-4.007 E3.04572
G1 X0.962 Y-4.007 E3.07979
G1 X-4.007 Y0.962 E3.39429
G1 X-4.007 Y1.723 E3.42836
G1 X1.723 Y-4.007 E3.79104
G1 X2.485 Y-4.007 E3.82511
G1 X-4.007 Y2.485 E4.23596
G1 X-4.007 Y3.246 E4.27003
G1 X3.246 Y-4.007 E4.72906
G1 X4.007 Y-4.007 E4.76312
G1 X-4.007 Y4.007 E5.27033
G1 X-3.246 Y4.007 E5.30439
G1 X4.007 Y-3.246 E5.76342
G1 X4.007 Y-2.485 E5.79749
G1 X-2.485 Y4.007 E6.20834
G1 X-1.723 Y4.007 E6.24241
G1 X4.007 Y-1.723 E6.60509
G1 X4.007 Y-0.962 E6.63916
G1 X-0.962 Y4.007 E6.95366
G1 X-0.201 Y4.007 E6.98773
G1 X4.007 Y-0.201 E7.25406
G1 X4.007 Y0.560 E7.28813
G1 X0.560 Y4.007 E7.50629
G1 X1.321 Y4.007 E7.54035
G1 X4.007 Y1.321 E7.71034
G1 X4.007 Y2.082 E7.74440
G1 X2.082 Y4.007 E7.86621
G1 X2.843 Y4.007 E7.90028
G1 X4.007 Y2.843 E7.97392
G1 X4.007 Y3.605 E8.00798
G1 X3.605 Y4.007 E8.03344
G1 Z0.800 F7800.000
G1 E6.03344 F2400.00000
G92 E0
G1 X4.323 Y-4.323 F7800.000
G1 E2.00000 F2400.00000
G1 F872.441
G1 X4.323 Y4.323 E2.37173
G1 X-4.323 Y4.323 E2.74346
G1 X-4.323 Y-4.323 E3.11519
G1 X4.263 Y-4.323 E3.48434
G1 X4.780 Y-4.780 F7800.000
G1 F872.441
G1 X4.780 Y4.780 E3.79999
G1 X-4.780 Y4.780 E4.11564
G1 X-4.780 Y-4.780 E4.43128
G1 X4.720 Y-4.780 E4.74495
G1 X4.676 Y-4.394 F7800.000
G1 Z1.000 F7800.000
G1 X4.323 Y-4.323 F7800.000
G1 F872.441
G1 X4.323 Y4.323 E5.11668
G1 X-4.323 Y4.323 E5.48841
G1 X-4.323 Y-4.323 E5.86014
G1 X4.263 Y-4.323 E6.22929
G1 X4.780 Y-4.780 F7800.000
G1 F872.441
G1 X4.780 Y4.780 E6.54494
G1 X-4.780 Y4.780 E6.86058
G1 X-4.780 Y-4.780 E7.17623
G1 X4.720 Y-4.780 E7.48989
G1 X4.676 Y-4.394 F7800.000
G1 Z1.200 F7800.000
G1 X4.323 Y-4.323 F7800.000
G1 F872.441
G1 X4.323 Y4.323 E7.86162
G1 X-4.323 Y4.323 E8.23335
G1 X-4.323 Y-4.323 E8.60508
G1 X4.263 Y-4.323 E8.97424
G1 X4.780 Y-4.780 F7800.000
G1 F872.441
G1 X4.780 Y4.780 E9.28988
G1 X-4.780 Y4.780 E9.60553
G1 X-4.780 Y-4.780 E9.92117
G1 X4.720 Y-4.780 E10.23484
G1 X4.676 Y-4.394 F7800.000
G1 Z1.400 F7800.000
G1 X4.323 Y-4.323 F7800.000
G1 F872.441
G1 X4.323 Y4.323 E10.60657
G1 X-4.323 Y4.323 E10.97830
G1 X-4.323 Y-4.323 E11.35003
G1 X4.263 Y-4.323 E11.71918
G1 X4.780 Y-4.780 F7800.000
G1 F872.441
G1 X4.780 Y4.780 E12.03483
G1 X-4.780 Y4.780 E12.35047
G1 X-4.780 Y-4.780 E12.66612
G1 X4.720 Y-4.780 E12.97978
G1 X4.676 Y-4.394 F7800.000
G1 Z1.600 F7800.000
G1 X4.323 Y-4.323 F7800.000
G1 F872.441
G1 X4.323 Y4.323 E13.35151
G1 X-4.323 Y4.323 E13.72324
G1 X-4.323 Y-4.323 E14.09498
G1 X4.263 Y-4.323 E14.46413
G1 X4.780 Y-4.780 F7800.000
G1 F872.441
G1 X4.780 Y4.780 E14.77977
G1 X-4.780 Y4.780 E15.09542
G1 X-4.780 Y-4.780 E15.41106
G1 X4.720 Y-4.780 E15.72473
G1 X4.676 Y-4.394 F7800.000
G1 Z1.800 F7800.000
G1 X4.323 Y-4.323 F7800.000
G1 F872.441
G1 X4.323 Y4.323 E16.09646
G1 X-4.323 Y4.323 E16.46819
G1 X-4.323 Y-4.323 E16.83992
G1 X4.263 Y-4.323 E17.20907
G1 X4.780 Y-4.780 F7800.000
G1 F872.441
G1 X4.780 Y4.780 E17.52472
G1 X-4.780 Y4.780 E17.84036
G1 X-4.780 Y-4.780 E18.15601
G1 X4.720 Y-4.780 E18.46967
G1 X4.676 Y-4.394 F7800.000
G1 Z2.000 F7800.000
G1 X4.323 Y-4.323 F7800.000
G1 F872.441
G1 X4.323 Y4.323 E18.84140
G1 X-4.323 Y4.323 E19.21314
G1 X-4.323 Y-4.323 E19.58487
G1 X4.263 Y-4.323 E19.95402
G1 X4.780 Y-4.780 F7800.000
G1 F872.441
G1 X4.780 Y4.780 E20.26966
G1 X-4.780 Y4.780 E20.58531
G1 X-4.780 Y-4.780 E20.90095
G1 X4.720 Y-4.780 E21.21462
G1 X4.676 Y-4.394 F7800.000
G1 Z2.200 F7800.000
G1 X4.323 Y-4.323 F7800.000
G1 F872.441
G1 X4.323 Y4.323 E21.58635
G1 X-4.323 Y4.323 E21.95808
G1 X-4.323 Y-4.323 E22.32981
G1 X4.263 Y-4.323 E22.69896
G1 X4.780 Y-4.780 F7800.000
G1 F872.441
G1 X4.780 Y4.780 E23.01461
G1 X-4.780 Y4.780 E23.33025
G1 X-4.780 Y-4.780 E23.64590
G1 X4.720 Y-4.780 E23.95956
G1 X4.676 Y-4.394 F7800.000
G1 Z2.400 F7800.000
G1 X4.323 Y-4.323 F7800.000
G1 F872.441
G1 X4.323 Y4.323 E24.33130
G1 X-4.323 Y4.323 E24.70303
G1 X-4.323 Y-4.323 E25.07476
G1 X4.263 Y-4.323 E25.44391
G1 X4.780 Y-4.780 F7800.000
G1 F872.441
G1 X4.780 Y4.780 E25.75955
G1 X-4.780 Y4.780 E26.07520
G1 X-4.780 Y-4.780 E26.39085
G1 X4.720 Y-4.780 E26.70451
G1 X4.676 Y-4.394 F7800.000
G1 Z2.600 F7800.000
G1 X4.323 Y-4.323 F7800.000
G1 F872.441
G1 X4.323 Y4.323 E27.07624
G1 X-4.323 Y4.323 E27.44797
G1 X-4.323 Y-4.323 E27.81970
G1 X4.263 Y-4.323 E28.18885
G1 X4.780 Y-4.780 F7800.000
G1 F872.441
G1 X4.780 Y4.780 E28.50450
G1 X-4.780 Y4.780 E28.82015
G1 X-4.780 Y-4.780 E29.13579
G1 X4.720 Y-4.780 E29.44946
G1 X4.676 Y-4.394 F7800.000
G1 Z2.800 F7800.000
G1 X4.323 Y-4.323 F7800.000
G1 F872.441
G1 X4.323 Y4.323 E29.82119
G1 X-4.323 Y4.323 E30.19292
G1 X-4.323 Y-4.323 E30.56465
G1 X4.263 Y-4.323 E30.93380
G1 X4.780 Y-4.780 F7800.000
G1 F872.441
G1 X4.780 Y4.780 E31.24945
G1 X-4.780 Y4.780 E31.56509
G1 X-4.780 Y-4.780 E31.88074
G1 X4.720 Y-4.780 E32.19440
G1 X4.676 Y-4.394 F7800.000
G1 Z3.000 F7800.000
G1 X4.323 Y-4.323 F7800.000
G1 F872.441
G1 X4.323 Y4.323 E32.56613
G1 X-4.323 Y4.323 E32.93786
G1 X-4.323 Y-4.323 E33.30959
G1 X4.263 Y-4.323 E33.67875
G1 X4.780 Y-4.780 F7800.000
G1 F872.441
G1 X4.780 Y4.780 E33.99439
G1 X-4.780 Y4.780 E34.31004
G1 X-4.780 Y-4.780 E34.62568
G1 X4.720 Y-4.780 E34.93935
G1 X4.676 Y-4.394 F7800.000
G1 Z3.200 F7800.000
G1 X4.323 Y-4.323 F7800.000
G1 F872.441
G1 X4.323 Y4.323 E35.31108
G1 X-4.323 Y4.323 E35.68281
G1 X-4.323 Y-4.323 E36.05454
G1 X4.263 Y-4.323 E36.42369
G1 X4.780 Y-4.780 F7800.000
G1 F872.441
G1 X4.780 Y4.780 E36.73934
G1 X-4.780 Y4.780 E37.05498
G1 X-4.780 Y-4.780 E37.37063
G1 X4.720 Y-4.780 E37.68429
G1 X4.676 Y-4.394 F7800.000
G1 Z3.400 F7800.000
G1 X4.323 Y-4.323 F7800.000
G1 F872.441
G1 X4.323 Y4.323 E38.05602
G1 X-4.323 Y4.323 E38.42775
G1 X-4.323 Y-4.323 E38.79948
G1 X4.263 Y-4.323 E39.16864
G1 X4.780 Y-4.780 F7800.000
G1 F872.441
G1 X4.780 Y4.780 E39.48428
G1 X-4.780 Y4.780 E39.79993
G1 X-4.780 Y-4.780 E40.11557
G1 X4.720 Y-4.780 E40.42924
G1 X4.676 Y-4.394 F7800.000
G1 Z3.600 F7800.000
G1 X4.323 Y-4.323 F7800.000
G1 F872.441
G1 X4.323 Y4.323 E40.80097
G1 X-4.323 Y4.323 E41.17270
G1 X-4.323 Y-4.323 E41.54443
G1 X4.263 Y-4.323 E41.91358
G1 X4.780 Y-4.780 F7800.000
G1 F872.441
G1 X4.780 Y4.780 E42.22923
G1 X-4.780 Y4.780 E42.54487
G1 X-4.780 Y-4.780 E42.86052
G1 X4.720 Y-4.780 E43.17418
G1 X4.676 Y-4.394 F7800.000
G1 Z3.800 F7800.000
G1 X4.323 Y-4.323 F7800.000
G1 F872.441
G1 X4.323 Y4.323 E43.54591
G1 X-4.323 Y4.323 E43.91764
G1 X-4.323 Y-4.323 E44.28938
G1 X4.263 Y-4.323 E44.65853
G1 X4.780 Y-4.780 F7800.000
G1 F872.441
G1 X4.780 Y4.780 E44.97417
G1 X-4.780 Y4.780 E45.28982
G1 X-4.780 Y-4.780 E45.60546
G1 X4.720 Y-4.780 E45.91913
G1 X4.676 Y-4.394 F7800.000
G1 Z4.000 F7800.000
G1 X4.323 Y-4.323 F7800.000
G1 F872.441
G1 X4.323 Y4.323 E46.29086
G1 X-4.323 Y4.323 E46.66259
G1 X-4.323 Y-4.323 E47.03432
G1 X4.263 Y-4.323 E47.40347
G1 X4.780 Y-4.780 F7800.000
G1 F872.441
G1 X4.780 Y4.780 E47.71912
G1 X-4.780 Y4.780 E48.03476
G1 X-4.780 Y-4.780 E48.35041
G1 X4.720 Y-4.780 E48.66407
G1 X4.676 Y-4.394 F7800.000
G1 Z4.200 F7800.000
G1 X4.323 Y-4.323 F7800.000
G1 F872.441
G1 X4.323 Y4.323 E49.03580
G1 X-4.323 Y4.323 E49.40754
G1 X-4.323 Y-4.323 E49.77927
G1 X4.263 Y-4.323 E50.14842
G1 X4.780 Y-4.780 F7800.000
G1 F872.441
G1 X4.780 Y4.780 E50.46406
G1 X-4.780 Y4.780 E50.77971
G1 X-4.780 Y-4.780 E51.09535
G1 X4.720 Y-4.780 E51.40902
G1 X4.676 Y-4.394 F7800.000
G1 Z4.400 F7800.000
G1 X4.323 Y-4.323 F7800.000
G1 F872.441
G1 X4.323 Y4.323 E51.78075
G1 X-4.323 Y4.323 E52.15248
G1 X-4.323 Y-4.323 E52.52421
G1 X4.263 Y-4.323 E52.89336
G1 X4.780 Y-4.780 F7800.000
G1 F872.441
G1 X4.780 Y4.780 E53.20901
G1 X-4.780 Y4.780 E53.52465
G1 X-4.780 Y-4.780 E53.84030
G1 X4.720 Y-4.780 E54.15396
G1 X4.676 Y-4.394 F7800.000
G1 Z4.600 F7800.000
G1 X4.323 Y-4.323 F7800.000
G1 F872.441
G1 X4.323 Y4.323 E54.52570
G1 X-4.323 Y4.323 E54.89743
G1 X-4.323 Y-4.323 E55.26916
G1 X4.263 Y-4.323 E55.63831
G1 X4.780 Y-4.780 F7800.000
G1 F872.441
G1 X4.780 Y4.780 E55.95395
G1 X-4.780 Y4.780 E56.26960
G1 X-4.780 Y-4.780 E56.58525
G1 X4.720 Y-4.780 E56.89891
G1 X4.676 Y-4.394 F7800.000
G1 Z4.800 F7800.000
G1 X4.323 Y-4.323 F7800.000
G1 F872.441
G1 X4.323 Y4.323 E57.27064
G1 X-4.323 Y4.323 E57.64237
G1 X-4.323 Y-4.323 E58.01410
G1 X4.263 Y-4.323 E58.38325
G1 X4.780 Y-4.780 F7800.000
G1 F872.441
G1 X4.780 Y4.780 E58.69890
G1 X-4.780 Y4.780 E59.01455
G1 X-4.780 Y-4.780 E59.33019
G1 X4.720 Y-4.780 E59.64386
G1 X4.676 Y-4.394 F7800.000
G1 Z5.000 F7800.000
G1 X4.323 Y-4.323 F7800.000
G1 F872.441
G1 X4.323 Y4.323 E60.01559
G1 X-4.323 Y4.323 E60.38732
G1 X-4.323 Y-4.323 E60.75905
G1 X4.263 Y-4.323 E61.12820
G1 X4.780 Y-4.780 F7800.000
G1 F872.441
G1 X4.780 Y4.780 E61.44385
G1 X-4.780 Y4.780 E61.75949
G1 X-4.780 Y-4.780 E62.07514
G1 X4.720 Y-4.780 E62.38880
G1 X4.676 Y-4.394 F7800.000
G1 Z5.200 F7800.000
G1 X4.323 Y-4.323 F7800.000
G1 F872.441
G1 X4.323 Y4.323 E62.76053
G1 X-4.323 Y4.323 E63.13226
G1 X-4.323 Y-4.323 E63.50399
G1 X4.263 Y-4.323 E63.87315
G1 X4.780 Y-4.780 F7800.000
G1 F872.441
G1 X4.780 Y4.780 E64.18879
G1 X-4.780 Y4.780 E64.50444
G1 X-4.780 Y-4.780 E64.82008
G1 X4.720 Y-4.780 E65.13375
G1 X4.676 Y-4.394 F7800.000
G1 Z5.400 F7800.000
G1 X4.323 Y-4.323 F7800.000
G1 F872.441
G1 X4.323 Y4.323 E65.50548
G1 X-4.323 Y4.323 E65.87721
G1 X-4.323 Y-4.323 E66.24894
G1 X4.263 Y-4.323 E66.61809
G1 X4.780 Y-4.780 F7800.000
G1 F872.441
G1 X4.780 Y4.780 E66.93374
G1 X-4.780 Y4.780 E67.24938
G1 X-4.780 Y-4.780 E67.56503
G1 X4.720 Y-4.780 E67.87869
G1 X4.676 Y-4.394 F7800.000
G1 Z5.600 F7800.000
G1 X4.323 Y-4.323 F7800.000
G1 F872.441
G1 X4.323 Y4.323 E68.25042
G1 X-4.323 Y4.323 E68.62215
G1 X-4.323 Y-4.323 E68.99389
G1 X4.263 Y-4.323 E69.36304
G1 X4.780 Y-4.780 F7800.000
G1 F872.441
G1 X4.780 Y4.780 E69.67868
G1 X-4.780 Y4.780 E69.99433
G1 X-4.780 Y-4.780 E70.30997
G1 X4.720 Y-4.780 E70.62364
G1 X4.676 Y-4.394 F7800.000
G1 Z5.800 F7800.000
G1 X4.323 Y-4.323 F7800.000
G1 F872.441
G1 X4.323 Y4.323 E70.99537
G1 X-4.323 Y4.323 E71.36710
G1 X-4.323 Y-4.323 E71.73883
G1 X4.263 Y-4.323 E72.10798
G1 X4.780 Y-4.780 F7800.000
G1 F872.441
G1 X4.780 Y4.780 E72.42363
G1 X-4.780 Y4.780 E72.73927
G1 X-4.780 Y-4.780 E73.05492
G1 X4.720 Y-4.780 E73.36858
G1 X4.676 Y-4.394 F7800.000
G1 Z6.000 F7800.000
G1 X4.323 Y-4.323 F7800.000
G1 F872.441
G1 X4.323 Y4.323 E73.74031
G1 X-4.323 Y4.323 E74.11205
G1 X-4.323 Y-4.323 E74.48378
G1 X4.263 Y-4.323 E74.85293
G1 X4.780 Y-4.780 F7800.000
G1 F872.441
G1 X4.780 Y4.780 E75.16857
G1 X-4.780 Y4.780 E75.48422
